X:3 
T: Monster Cafe 2 (tunebook)
R: bourrée
M: 2/4
L: 1/8
K: Gmin
|: c>e d/c/d/e/ | fg d2 | d/c/d/e/ f/e/d/c/ | B/c/d/e/ dc | 
c>e d/c/d/e/ | fg d2 | d/c/d/e/ f/e/d/c/ | B/c/d/B/ c2 :| 
|: ce/c/-c2  | Bd fB | A>c B/A/B/c/ | d/c/B/A/ BG | 
ce/c/-c2  | Bd fB | A>c B/A/B/c/ | d/c/B/A/ G2 :| 

